svgs/1F9B7.svg

<svg xmlns="http://www.w3.org/2000/svg" xmlns:xlink="http://www.w3.org/1999/xlink" preserveAspectRatio="none" viewBox="0 0 72 72"><defs><path id="a" fill="#ECEFF1" d="M61.75 38.05q10.75-19.95.6-30.75-3.05-3.25-8.25-3.5-5.7.35-11.25 3.05Q39.55 8.1 36 8.1q-3.5 0-6.8-1.25Q23.7 4.15 18 3.8q-5.25.25-8.25 3.5-10.2 10.8.55 30.75-3.75 17.4.8 25.65 4.5 8.2 8.7 2.4L32.1 46q1.95-2.45 3.75-2.45h.35q1.85 0 3.75 2.45l12.3 20.1q4.2 5.8 8.7-2.4 4.55-8.25.8-25.65m-34.7-27.7q4.5 1.4 9 1.4t9-1.4q-4.5 1.4-9 1.4t-9-1.4z"/><path id="b" fill="none" stroke="#CFD8DC" stroke-linecap="round" stroke-linejoin="round" stroke-width="2" d="M27.05 10.35q4.5 1.4 9 1.4t9-1.4"/></defs><g><use xlink:href="#a"/><use xlink:href="#b"/></g></svg>

<svg xmlns="http://www.w3.org/2000/svg" version="1.1" xmlns:xlink="http://www.w3.org/1999/xlink" preserveAspectRatio="none" x="0px" y="0px" width="72px" height="72px" viewBox="0 0 72 72">
<defs>
<g id="Layer0_0_FILL">
<path fill="#ECEFF1" stroke="none" d="
M 61.75 38.05
Q 72.5 18.1 62.35 7.3 59.3 4.05 54.1 3.8 48.4 4.15 42.85 6.85 39.55 8.1 36 8.1 32.5 8.1 29.2 6.85 23.7 4.15 18 3.8 12.75 4.05 9.75 7.3 -0.45 18.1 10.3 38.05 6.55 55.45 11.1 63.7 15.6 71.9 19.8 66.1
L 32.1 46
Q 34.05 43.55 35.85 43.55 36 43.55 36.05 43.55 36.1 43.55 36.2 43.55 38.05 43.55 39.95 46
L 52.25 66.1
Q 56.45 71.9 60.95 63.7 65.5 55.45 61.75 38.05
M 27.05 10.35
Q 31.55 11.75 36.05 11.75 40.55 11.75 45.05 10.35 40.55 11.75 36.05 11.75 31.55 11.75 27.05 10.35 Z"/>
</g>

<path id="Layer0_0_1_STROKES" stroke="#CFD8DC" stroke-width="2" stroke-linejoin="round" stroke-linecap="round" fill="none" d="
M 27.05 10.35
Q 31.55 11.75 36.05 11.75 40.55 11.75 45.05 10.35"/>
</defs>

<g id="Camada_1">
<g transform="matrix( 1, 0, 0, 1, 0,0) ">
<use xlink:href="#Layer0_0_FILL"/>

<use xlink:href="#Layer0_0_1_STROKES"/>
</g>
</g>
</svg>
